X:108
T: Farewell [to] Inverness
N: O'Farrell's Pocket Companion v.2 (Sky ed. p.60)
N: "Scotch"
M: C
L: 1/8
R: hornpipe
Q: 320
K: D
FE|D3F EDEF|B2 E2 E2 FE|D3E EDEF|AFED d3e|
fedf edBe|dBAF E3F|DEFG ABAG|F2 D2 D2 :|
P:2
fe|d2 a2 fgaf|b2 e2 e2 fe|d2 ag fgab|agfe d3e|
f2 fd e2 eB|dBAG E3F|DEFG ABdA|F2 D2 D2 :|
P:3
FE|DAFA DAFA|B2 E2 E2 FE|DAFA DAFA|dAFD d3e|
fedf edBd|AFdF E3F|DEFG ABAG|F2 D2 D2 :|
P:4
fe|dfab adfa|b2 e2 egfe|dfab adfa|b2 bg afed|
f2 fd e2 ec|dBAF E3F|DEFG ABdA|F2 D2 D2 :|
